src/components/star-component/empate.svg

<svg width="255" height="260" xmlns="http://www.w3.org/2000/svg" fill="none">

 <g>
  <title>Layer 1</title>
  <path id="svg_1" stroke-width="10" stroke="black" fill="#757575" d="m147.669,46.3756l75.761,-14.4618l-14.172,77.6092l-0.313,1.713l0.819,1.536l36.965,69.39l-76.515,10.195l-1.785,0.238l-1.224,1.321l-52.927,57.176l-33.0767,-71.143l-0.7495,-1.612l-1.5988,-0.777l-69.76554,-33.907l56.13594,-54.3223l1.261,-1.2202l0.2219,-1.7407l9.9666,-78.1967l67.6261,37.6595l1.587,0.8835l1.783,-0.3405z"/>
  <text xml:space="preserve" text-anchor="start" font-family="'Oswald'" font-size="55" stroke-width="0" id="svg_3" y="86" x="-213.5" fill="#000000">Empate</text>
  <text transform="matrix(0.875668 0 0 1.20957 -155.823 257.936)" stroke="null" xml:space="preserve" text-anchor="start" font-family="'Oswald'" font-size="55" id="svg_4" y="-88.10916" x="257.5" stroke-width="0" fill="#000000">Empate</text>
 </g>
</svg>

<svg width="255" height="260" viewBox="0 0 255 260" fill="none" xmlns="http://www.w3.org/2000/svg">
<path d="M147.669 46.3756L223.43 31.9138L209.258 109.523L208.945 111.236L209.764 112.772L246.729 182.162L170.214 192.357L168.429 192.595L167.205 193.916L114.278 251.092L81.2013 179.949L80.4518 178.337L78.853 177.56L9.08746 143.653L65.2234 89.3307L66.4844 88.1105L66.7063 86.3698L76.6729 8.1731L144.299 45.8326L145.886 46.7161L147.669 46.3756Z" fill="#302f2e" stroke="black" stroke-width="10"/>
<path d="M57.2254 143.58V105.08H73.7254C74.7888 105.08 75.7054 105.465 76.4754 106.235C77.2821 107.005 77.6854 107.94 77.6854 109.04V120.865C77.6854 121.965 77.2821 122.9 76.4754 123.67C75.7054 124.44 74.7888 124.825 73.7254 124.825H62.3404V143.58H57.2254ZM62.3404 119.71H70.5904C71.1404 119.71 71.5988 119.527 71.9654 119.16C72.3688 118.757 72.5704 118.28 72.5704 117.73V112.12C72.5704 111.607 72.3688 111.167 71.9654 110.8C71.5988 110.397 71.1404 110.195 70.5904 110.195H62.3404V119.71ZM88.4005 143.58C87.3005 143.58 86.3472 143.195 85.5405 142.425C84.7705 141.618 84.3855 140.665 84.3855 139.565V120.04C84.3855 118.94 84.7705 118.005 85.5405 117.235C86.3472 116.465 87.3005 116.08 88.4005 116.08H95.8805C97.0172 116.08 97.9705 116.465 98.7405 117.235C99.5105 118.005 99.8955 118.94 99.8955 120.04V128.4C99.8955 129.5 99.5105 130.453 98.7405 131.26C97.9705 132.03 97.0172 132.415 95.8805 132.415H89.5555V136.43C89.5555 136.98 89.7389 137.457 90.1055 137.86C90.5089 138.227 91.0039 138.41 91.5905 138.41H98.7405L99.8955 143.58H88.4005ZM89.5555 127.245H92.7455C93.2955 127.245 93.7539 127.062 94.1205 126.695C94.5239 126.292 94.7255 125.815 94.7255 125.265V123.23C94.7255 122.68 94.5239 122.222 94.1205 121.855C93.7539 121.452 93.2955 121.25 92.7455 121.25H91.5905C91.0039 121.25 90.5089 121.452 90.1055 121.855C89.7389 122.222 89.5555 122.68 89.5555 123.23V127.245ZM105.397 143.58V116.08H116.892C117.992 116.08 118.927 116.483 119.697 117.29C120.504 118.06 120.907 118.995 120.907 120.095V126.09L115.737 124.935V123.285C115.737 122.735 115.536 122.258 115.132 121.855C114.766 121.452 114.307 121.25 113.757 121.25H110.567V143.58H105.397ZM129.887 143.58C128.75 143.58 127.797 143.195 127.027 142.425C126.257 141.655 125.872 140.702 125.872 139.565V120.095C125.872 118.958 126.257 118.005 127.027 117.235C127.797 116.465 128.75 116.08 129.887 116.08H136.212V103.54L141.382 102.33V143.58H129.887ZM133.022 138.41H136.212V121.25H133.022C132.509 121.25 132.05 121.433 131.647 121.8C131.244 122.167 131.042 122.643 131.042 123.23V136.43C131.042 136.943 131.244 137.402 131.647 137.805C132.05 138.208 132.509 138.41 133.022 138.41ZM147.474 108.71V103.54L152.644 102.33V107.5L147.474 108.71ZM147.584 143.58V117.29L152.754 116.08V143.58H147.584ZM163.315 143.58C162.215 143.58 161.28 143.195 160.51 142.425C159.74 141.618 159.355 140.665 159.355 139.565V135H164.47V136.43C164.47 136.98 164.672 137.457 165.075 137.86C165.479 138.227 165.955 138.41 166.505 138.41H167.66C168.21 138.41 168.669 138.227 169.035 137.86C169.439 137.457 169.64 136.98 169.64 136.43V134.395C169.64 133.845 169.439 133.387 169.035 133.02C168.669 132.617 168.21 132.415 167.66 132.415H163.315C162.215 132.415 161.28 132.03 160.51 131.26C159.74 130.453 159.355 129.5 159.355 128.4V120.095C159.355 118.995 159.74 118.06 160.51 117.29C161.28 116.483 162.215 116.08 163.315 116.08H170.85C171.95 116.08 172.885 116.483 173.655 117.29C174.425 118.06 174.81 118.995 174.81 120.095V124.66H169.64V123.23C169.64 122.68 169.439 122.222 169.035 121.855C168.669 121.452 168.21 121.25 167.66 121.25H166.505C165.955 121.25 165.479 121.452 165.075 121.855C164.672 122.222 164.47 122.68 164.47 123.23V125.265C164.47 125.815 164.672 126.292 165.075 126.695C165.479 127.062 165.955 127.245 166.505 127.245H170.85C171.95 127.245 172.885 127.648 173.655 128.455C174.425 129.225 174.81 130.16 174.81 131.26V139.785C174.774 140.812 174.37 141.71 173.6 142.48C172.83 143.213 171.914 143.58 170.85 143.58H163.315ZM180.904 143.58V103.54L186.074 102.385V116.08H192.619L191.409 121.25H186.074V143.58H180.904ZM201.043 143.58C199.943 143.58 198.99 143.195 198.183 142.425C197.413 141.618 197.028 140.665 197.028 139.565V120.04C197.028 118.94 197.413 118.005 198.183 117.235C198.99 116.465 199.943 116.08 201.043 116.08H208.523C209.66 116.08 210.613 116.465 211.383 117.235C212.153 118.005 212.538 118.94 212.538 120.04V128.4C212.538 129.5 212.153 130.453 211.383 131.26C210.613 132.03 209.66 132.415 208.523 132.415H202.198V136.43C202.198 136.98 202.381 137.457 202.748 137.86C203.151 138.227 203.646 138.41 204.233 138.41H211.383L212.538 143.58H201.043ZM202.198 127.245H205.388C205.938 127.245 206.396 127.062 206.763 126.695C207.166 126.292 207.368 125.815 207.368 125.265V123.23C207.368 122.68 207.166 122.222 206.763 121.855C206.396 121.452 205.938 121.25 205.388 121.25H204.233C203.646 121.25 203.151 121.452 202.748 121.855C202.381 122.222 202.198 122.68 202.198 123.23V127.245Z" fill="white"/>
</svg>
